X:5019
T:Pas de loup
T:Le pas de loup, Lo pas del lop
O:england
C:Roche/Breugnot, A. Bruel
M:2/4
L:1/16
K:C
c2de c2de|fgfe dfed|\
c2de c2de|1 fgfe d4:|2 fgfe d3e\
|:fdec B2G2|
AcBd c2de|\
fdec B2G2|AcBd c4:|\
|:g2ef g3g|agfe defd|\
g2ef g3g|
|1 agfe d4:|2 agfe d3e\
|:fdec B2G2|AcBd c2de|\
fdec B2G2|AcBd c4:|
